X: 21909
T: Kit O'Mahony
R: jig
M: 6/8
K: Gmajor
|:~B3 ABA|GAG FGA|B2d cAF|DGF G2B|
B2G AFD|GAG FGA|g/f/ed cAF|DGF G2D:|
|:GBd deg|fed cAF|GBd def|~g3 def|
g2e fed|edB cde|g/f/ed cAF|DGF G2D:|
|:GBd cAc|BGG GBd|gdB cAE|D/E/F/G/A/B/ cAF|
GBd cAc|BGG g2e|g/f/ed cAF|1 DGF G2D:|2 DGF GBd||
|:~g3 dBG|fed cAF|GBd def|g3 def|
~g3 afd|bag fed|g/f/ed cAF|1 DGF G2d:|2 DGF G3||

